build/img/icons/cart2.svg

<svg width="126" height="146" viewBox="0 0 126 146" fill="none" xmlns="http://www.w3.org/2000/svg">
<path opacity="0.2" d="M5.30526 24.0986C2.38737 24.0986 0 26.4412 0 29.3043C0 32.1675 2.38737 34.5101 5.30526 34.5101H17.0776L31.004 89.1702C32.1817 93.8033 36.4153 96.9788 41.2803 96.9788H102.126C106.912 96.9788 110.975 93.8658 112.238 89.3316L126 39.7158H37.1368L39.7895 50.1272H112.238L102.126 86.5673H41.2803L27.3539 31.9072C26.7802 29.6651 25.4561 27.6769 23.5938 26.2611C21.7315 24.8453 19.4388 24.0838 17.0829 24.0986H5.30526ZM95.4947 96.9788C86.7676 96.9788 79.5789 104.033 79.5789 112.596C79.5789 121.159 86.7676 128.213 95.4947 128.213C104.222 128.213 111.411 121.159 111.411 112.596C111.411 104.033 104.222 96.9788 95.4947 96.9788ZM47.7474 96.9788C39.0202 96.9788 31.8316 104.033 31.8316 112.596C31.8316 121.159 39.0202 128.213 47.7474 128.213C56.4745 128.213 63.6632 121.159 63.6632 112.596C63.6632 104.033 56.4745 96.9788 47.7474 96.9788ZM47.7474 107.39C50.7342 107.39 53.0526 109.67 53.0526 112.596C53.0526 115.527 50.7289 117.802 47.7474 117.802C44.7605 117.802 42.4421 115.522 42.4421 112.596C42.4421 109.665 44.7658 107.39 47.7474 107.39ZM95.4947 107.39C98.4816 107.39 100.8 109.67 100.8 112.596C100.8 115.527 98.4763 117.802 95.4947 117.802C92.5079 117.802 90.1895 115.522 90.1895 112.596C90.1895 109.665 92.5132 107.39 95.4947 107.39Z" fill="#C4C4C4"/>
</svg>

<svg width="126" height="146" fill="none" xmlns="http://www.w3.org/2000/svg">
    <path opacity=".2" d="M5.305 24.099C2.387 24.099 0 26.44 0 29.304s2.387 5.206 5.305 5.206h11.773l13.926 54.66c1.178 4.633 5.411 7.809 10.276 7.809h60.846c4.786 0 8.849-3.113 10.112-7.647L126 39.716H37.137l2.652 10.411h72.449l-10.112 36.44H41.28l-13.926-54.66a10.309 10.309 0 0 0-3.76-5.646 10.652 10.652 0 0 0-6.511-2.162H5.305zm90.19 72.88c-8.727 0-15.916 7.054-15.916 15.617s7.189 15.617 15.916 15.617 15.916-7.054 15.916-15.617-7.189-15.617-15.916-15.617zm-47.748 0c-8.727 0-15.915 7.054-15.915 15.617s7.188 15.617 15.915 15.617 15.916-7.054 15.916-15.617-7.188-15.617-15.916-15.617zm0 10.411c2.987 0 5.306 2.28 5.306 5.206 0 2.931-2.324 5.206-5.306 5.206-2.986 0-5.305-2.28-5.305-5.206 0-2.931 2.324-5.206 5.305-5.206zm47.748 0c2.987 0 5.305 2.28 5.305 5.206 0 2.931-2.324 5.206-5.305 5.206-2.987 0-5.306-2.28-5.306-5.206 0-2.931 2.324-5.206 5.306-5.206z" fill="#C4C4C4"/>
</svg>
